X: 21256
T: Keep Off The Grass
R: slide
M: 12/8
K: Gmajor
|:~B3 BAB|~e2d ~B2G|ABA AGA|ABA G2A|
~B3 BAB|~e2d ~B2G|ABA ABA|1 G3 G2A:|2 G3 GBd||
|:g3 gfg|~e2g dBG|ABA AGA|ABA GBd|
g3 gfg|~e2g dBG|ABA ABA|1 G3 GBd:|2 G3 G2A||

